actions/22x22-dark/stroke-join-miter.svg

<svg xmlns="http://www.w3.org/2000/svg" viewBox="0 0 22 22">
 <defs id="defs3051">
   <style type="text/css" id="current-color-scheme">
     .ColorScheme-Text {
       color:#f2f2f2;
     }
     </style>
 </defs>
   <path
      style="fill:currentColor;fill-opacity:1;stroke:none"
      d="m5 3v1 6 9h1 3v-1-8-3h4 3 1v-1-2-1h-1-10zm6 6v1 9h1 3v-1-5h1 1v-1-2-1h-1-1-2z"
      class="ColorScheme-Text" />
</svg>

<svg xmlns="http://www.w3.org/2000/svg" viewBox="0 0 22 22">
  <defs id="defs3051">
    <style type="text/css" id="current-color-scheme">
      .ColorScheme-Text {
        color:#f2f2f2
      }
      </style>
  </defs>
 <path 
     style="fill:currentColor;fill-opacity:1;stroke:none"      
	 class="ColorScheme-Text"
     d="M 5 3 L 5 4 L 5 10 L 5 19 L 6 19 L 9 19 L 9 18 L 9 10 L 9 7 L 13 7 L 16 7 L 17 7 L 17 6 L 17 4 L 17 3 L 16 3 L 6 3 L 5 3 z M 11 9 L 11 10 L 11 19 L 12 19 L 15 19 L 15 18 L 15 13 L 16 13 L 17 13 L 17 12 L 17 10 L 17 9 L 16 9 L 15 9 L 13 9 L 11 9 z "
     />
</svg>
